client/src/assets/light.svg

<svg width="33" height="53" viewBox="0 0 33 53" version="1.1" xmlns="http://www.w3.org/2000/svg" xmlns:xlink="http://www.w3.org/1999/xlink">
<title>innovation</title>
<desc>Created using Figma</desc>
<g id="Canvas" transform="translate(-3683 -4137)">
<g id="innovation">
<g id="Union">
<use xlink:href="#path0_fill" transform="translate(3683.77 4138.38)" fill="#FFFFFF"/>
<use xlink:href="#path1_fill" transform="translate(3683.77 4138.38)" fill="#FFFFFF"/>
</g>
<g id="Mask Group">
<mask id="mask0_alpha" mask-type="alpha">
<g id="Union">
<use xlink:href="#path0_fill" transform="translate(3683.77 4138.38)" fill="#C4C4C4"/>
<use xlink:href="#path1_fill" transform="translate(3683.77 4138.38)" fill="#C4C4C4"/>
</g>
</mask>
<g id="Union" mask="url(#mask0_alpha)">
<use xlink:href="#path2_fill" transform="translate(3688.75 4141.12)" fill="#D9F5FD"/>
<use xlink:href="#path3_fill" transform="translate(3688.75 4141.12)" fill="#D9F5FD"/>
</g>
</g>
<g id="Union">
<use xlink:href="#path4_stroke" transform="translate(3683.77 4138.38)" fill="#102B7B"/>
</g>
<g id="Union">
<use xlink:href="#path5_fill" transform="matrix(6.12323e-17 1 -1 6.12323e-17 3701.36 4160.41)" fill="#FFFFFF"/>
<use xlink:href="#path6_stroke" transform="matrix(6.12323e-17 1 -1 6.12323e-17 3701.36 4160.41)" fill="#102B7B"/>
</g>
</g>
</g>
<defs>
<path id="path0_fill" d="M 26.9432 28.2448L 26.9459 28.2403C 27.8985 26.6656 28.8466 25.0981 29.6663 23.518C 30.8255 21.2841 31.4815 18.7378 31.4815 16.0355C 31.4815 7.17954 24.4344 0 15.7407 0C 7.04753 0 0 7.17954 0 16.0355C 0 18.7382 0.656467 21.2845 1.81568 23.5189C 2.63627 25.0999 3.5848 26.6683 4.5383 28.2439C 7.05364 32.4014 9.60119 36.674 9.9117 41.5932C 9.94649 42.1444 10.391 42.5926 10.9433 42.5926L 20.5391 42.5926C 21.0914 42.5926 21.5359 42.1444 21.5707 41.5932C 21.8811 36.6743 24.4281 32.4021 26.9432 28.2448Z"/>
<path id="path1_fill" d="M 11.1111 48.1481C 11.1111 47.1255 11.9403 46.2963 12.963 46.2963L 18.5185 46.2963C 19.5412 46.2963 20.3704 47.1255 20.3704 48.1481C 20.3704 49.1708 19.5412 50 18.5185 50L 12.963 50C 11.9403 50 11.1111 49.1708 11.1111 48.1481Z"/>
<path id="path2_fill" d="M 26.9432 28.2448L 26.9459 28.2403C 27.8985 26.6656 28.8466 25.0981 29.6663 23.518C 30.8255 21.2841 31.4815 18.7378 31.4815 16.0355C 31.4815 7.17954 24.4344 0 15.7407 0C 7.04753 0 0 7.17954 0 16.0355C 0 18.7382 0.656467 21.2845 1.81568 23.5189C 2.63627 25.0999 3.5848 26.6683 4.5383 28.2439C 7.05354 32.4012 7.75212 36.6736 7.83009 41.5926C 7.83884 42.1448 8.28547 42.5926 8.83776 42.5926L 20.5391 42.5926C 21.0914 42.5926 21.5359 42.1444 21.5707 41.5932C 21.8811 36.6743 24.4281 32.4021 26.9432 28.2448Z"/>
<path id="path3_fill" d="M 9.25926 45.4485C 9.25926 44.4258 10.0884 43.5967 11.1111 43.5967L 16.6667 43.5967C 17.6893 43.5967 18.5185 44.4258 18.5185 45.4485C 18.5185 46.4712 17.6893 47.3004 16.6667 47.3004L 11.1111 47.3004C 10.0884 47.3004 9.25926 46.4712 9.25926 45.4485Z"/>
<path id="path4_stroke" d="M 26.9432 28.2448L 27.5849 28.633L 27.5864 28.6306L 26.9432 28.2448ZM 26.9459 28.2403L 26.3042 27.8521L 26.3027 27.8545L 26.9459 28.2403ZM 29.6663 23.518L 29.0005 23.1725L 29.0005 23.1726L 29.6663 23.518ZM 1.81568 23.5189L 1.14995 23.8643L 1.15 23.8644L 1.81568 23.5189ZM 4.5383 28.2439L 5.18 27.8557L 5.17996 27.8556L 4.5383 28.2439ZM 9.9117 41.5932L 9.16319 41.6404L 9.9117 41.5932ZM 26.3027 27.8545L 26.3 27.8591L 27.5864 28.6306L 27.5891 28.626L 26.3027 27.8545ZM 29.0005 23.1726C 28.1925 24.7312 27.2568 26.2774 26.3042 27.8521L 27.5876 28.6285C 28.5402 27.0538 29.5007 25.4651 30.332 23.8633L 29.0005 23.1726ZM 30.7315 16.0355C 30.7374 18.6435 30.125 21.0161 29.0005 23.1725L 30.332 23.8634C 31.5259 21.5521 32.2255 18.8321 32.2315 16.0355L 30.7315 16.0355ZM 15.7407 0.75C 24.0071 0.75 30.7315 7.58056 30.7315 16.0355L 32.2315 16.0355C 32.2315 6.77852 24.8617 -0.75 15.7407 -0.75L 15.7407 0.75ZM 0.75 16.0355C 0.75 7.58058 7.4748 0.75 15.7407 0.75L 15.7407 -0.75C 6.62025 -0.75 -0.75 6.77851 -0.75 16.0355L 0.75 16.0355ZM 2.48142 23.1735C 1.35694 21.0165 0.744039 18.6439 0.75 16.0355L -0.75 16.0355C -0.744039 18.8326 -0.0440043 21.5526 1.14995 23.8643L 2.48142 23.1735ZM 5.17996 27.8556C 4.2265 26.2801 3.29033 24.7329 2.48136 23.1734L 1.15 23.8644C 1.9822 25.4669 2.94309 27.0565 3.89665 28.6322L 5.17996 27.8556ZM 20.5391 41.8426L 10.9433 41.8426L 10.9433 43.3426L 20.5391 43.3426L 20.5391 41.8426ZM 12.963 45.5463C 11.5261 45.5463 10.3611 46.7113 10.3611 48.1481L 11.8611 48.1481C 11.8611 47.5397 12.3545 47.0463 12.963 47.0463L 12.963 45.5463ZM 18.5185 45.5463L 12.963 45.5463L 12.963 47.0463L 18.5185 47.0463L 18.5185 45.5463ZM 21.1204 48.1481C 21.1204 46.7113 19.9554 45.5463 18.5185 45.5463L 18.5185 47.0463C 19.127 47.0463 19.6204 47.5397 19.6204 48.1481L 21.1204 48.1481ZM 18.5185 50.75C 19.9554 50.75 21.1204 49.585 21.1204 48.1481L 19.6204 48.1481C 19.6204 48.7566 19.127 49.25 18.5185 49.25L 18.5185 50.75ZM 12.963 50.75L 18.5185 50.75L 18.5185 49.25L 12.963 49.25L 12.963 50.75ZM 10.3611 48.1481C 10.3611 49.585 11.5261 50.75 12.963 50.75L 12.963 49.25C 12.3545 49.25 11.8611 48.7566 11.8611 48.1481L 10.3611 48.1481ZM 10.6602 41.546C 10.3363 36.4138 7.67936 31.9867 5.18 27.8557L 3.89661 28.6321C 6.42793 32.816 8.86612 36.9341 9.16319 41.6404L 10.6602 41.546ZM 26.3015 27.8566C 23.8024 31.9875 21.1461 36.4142 20.8222 41.546L 22.3192 41.6404C 22.6162 36.9345 25.0538 32.8167 27.5849 28.633L 26.3015 27.8566ZM 20.5391 43.3426C 21.5167 43.3426 22.2614 42.5566 22.3192 41.6404L 20.8222 41.546C 20.8104 41.7322 20.666 41.8426 20.5391 41.8426L 20.5391 43.3426ZM 10.9433 41.8426C 10.8164 41.8426 10.672 41.7322 10.6602 41.546L 9.16319 41.6404C 9.22102 42.5566 9.96565 43.3426 10.9433 43.3426L 10.9433 41.8426Z"/>
<path id="path5_fill" d="M 0 1.85185C 0 0.829174 0.829174 0 1.85185 0C 1.85185 0 19.3477 7.93753e-16 20.3704 7.93753e-16C 20.3704 1.23457 20.3704 2.46914 20.3704 3.7037L 1.85185 3.7037C 0.829174 3.7037 0 2.87453 0 1.85185Z"/>
<path id="path6_stroke" d="M 20.3704 7.93753e-16L 21.1204 7.93753e-16C 21.1204 -0.414214 20.7846 -0.75 20.3704 -0.75L 20.3704 7.93753e-16ZM 20.3704 3.7037L 20.3704 4.4537C 20.7846 4.4537 21.1204 4.11792 21.1204 3.7037L 20.3704 3.7037ZM 1.85185 -0.75C 0.41496 -0.75 -0.75 0.41496 -0.75 1.85185L 0.75 1.85185C 0.75 1.24339 1.24339 0.75 1.85185 0.75L 1.85185 -0.75ZM 20.3704 -0.75C 19.859 -0.75 15.2294 -0.75 10.7276 -0.75C 8.47671 -0.75 6.25777 -0.75 4.60156 -0.75C 3.77345 -0.75 3.08602 -0.75 2.60562 -0.75C 2.36542 -0.75 2.17698 -0.75 2.04859 -0.75C 1.98439 -0.75 1.93521 -0.75 1.90207 -0.75C 1.88551 -0.75 1.87295 -0.75 1.86454 -0.75C 1.86033 -0.75 1.85716 -0.75 1.85504 -0.75C 1.85398 -0.75 1.85318 -0.75 1.85265 -0.75C 1.85238 -0.75 1.85219 -0.75 1.85205 -0.75C 1.85192 -0.75 1.85185 -0.75 1.85185 0C 1.85185 0.75 1.85192 0.75 1.85205 0.75C 1.85219 0.75 1.85238 0.75 1.85265 0.75C 1.85318 0.75 1.85398 0.75 1.85504 0.75C 1.85716 0.75 1.86033 0.75 1.86454 0.75C 1.87295 0.75 1.88551 0.75 1.90207 0.75C 1.93521 0.75 1.98439 0.75 2.04859 0.75C 2.17698 0.75 2.36542 0.75 2.60562 0.75C 3.08602 0.75 3.77345 0.75 4.60156 0.75C 6.25777 0.75 8.47671 0.75 10.7276 0.75C 15.2294 0.75 19.859 0.75 20.3704 0.75L 20.3704 -0.75ZM 1.85185 4.4537L 20.3704 4.4537L 20.3704 2.9537L 1.85185 2.9537L 1.85185 4.4537ZM -0.75 1.85185C -0.75 3.28874 0.41496 4.4537 1.85185 4.4537L 1.85185 2.9537C 1.24339 2.9537 0.75 2.46032 0.75 1.85185L -0.75 1.85185ZM 21.1204 3.7037C 21.1204 2.46914 21.1204 1.23457 21.1204 7.93753e-16L 19.6204 7.93753e-16C 19.6204 1.23457 19.6204 2.46914 19.6204 3.7037L 21.1204 3.7037Z"/>
</defs>
</svg>

<svg width="33" height="53" xmlns="http://www.w3.org/2000/svg" xmlns:xlink="http://www.w3.org/1999/xlink"><g transform="translate(.77 1.38)" fill="#FFF"><use xlink:href="#path0_fill"/><use xlink:href="#path1_fill"/></g><g transform="translate(-3683 -4137)"><mask id="a"><g transform="translate(3683.77 4138.38)" fill="#C4C4C4"><use xlink:href="#path0_fill"/><use xlink:href="#path1_fill"/></g></mask><g mask="url(#a)" fill="#D9F5FD"><use xlink:href="#path2_fill" transform="translate(3688.75 4141.12)"/><use xlink:href="#path3_fill" transform="translate(3688.75 4141.12)"/></g></g><use xlink:href="#path4_stroke" transform="translate(.77 1.38)" fill="#102B7B"/><g transform="rotate(90 -2.525 20.885)"><use xlink:href="#path5_fill" fill="#FFF"/><use xlink:href="#path6_stroke" fill="#102B7B"/></g><defs><path id="path0_fill" d="M26.943 28.245l.003-.005c.952-1.574 1.9-3.142 2.72-4.722a16.203 16.203 0 001.816-7.483C31.482 7.18 24.434 0 15.74 0S0 7.18 0 16.035c0 2.703.656 5.25 1.816 7.484.82 1.58 1.769 3.15 2.722 4.725 2.516 4.157 5.063 8.43 5.374 13.35.034.55.479.999 1.031.999h9.596c.552 0 .997-.449 1.032-1 .31-4.919 2.857-9.19 5.372-13.348z"/><path id="path1_fill" d="M11.111 48.148c0-1.023.83-1.852 1.852-1.852h5.556a1.852 1.852 0 010 3.704h-5.556a1.852 1.852 0 01-1.852-1.852z"/><path id="path2_fill" d="M26.943 28.245l.003-.005c.952-1.574 1.9-3.142 2.72-4.722a16.203 16.203 0 001.816-7.483C31.482 7.18 24.434 0 15.74 0S0 7.18 0 16.035c0 2.703.656 5.25 1.816 7.484.82 1.58 1.769 3.15 2.722 4.725 2.516 4.157 3.214 8.43 3.292 13.349.009.552.455 1 1.008 1h11.701c.552 0 .997-.449 1.032-1 .31-4.919 2.857-9.19 5.372-13.348z"/><path id="path3_fill" d="M9.26 45.449c0-1.023.828-1.852 1.851-1.852h5.556a1.852 1.852 0 010 3.703H11.11A1.852 1.852 0 019.26 45.45z"/><path id="path4_stroke" d="M26.943 28.245l.642.388.001-.002-.643-.386zm.003-.005l-.642-.388-.001.003.643.385zm2.72-4.722L29 23.172l.666.346zm-27.85 0l-.666.346.666-.345zm2.722 4.726l.642-.388-.642.388zm5.374 13.35l-.749.046.749-.047zm16.39-13.74l-.002.005 1.286.772.003-.005-1.286-.771zM29 23.174c-.808 1.558-1.743 3.104-2.696 4.68l1.284.775c.952-1.574 1.913-3.163 2.744-4.765L29 23.173zm1.732-7.137A15.14 15.14 0 0129 23.171l1.332.691a17.278 17.278 0 001.9-7.828h-1.5zM15.74.75c8.266 0 14.99 6.83 14.99 15.285h1.5c0-9.256-7.37-16.785-16.49-16.785v1.5zM.75 16.035C.75 7.581 7.475.75 15.74.75v-1.5C6.62-.75-.75 6.779-.75 16.035h1.5zm1.731 7.139A15.145 15.145 0 01.75 16.035h-1.5a17.28 17.28 0 001.9 7.83l1.331-.691zm2.699 4.682c-.954-1.576-1.89-3.123-2.699-4.683l-1.331.691c.832 1.603 1.793 3.192 2.747 4.768l1.283-.776zm15.36 13.987h-9.597v1.5h9.596v-1.5zm-7.577 3.703a2.602 2.602 0 00-2.602 2.602h1.5c0-.608.493-1.102 1.102-1.102v-1.5zm5.556 0h-5.556v1.5h5.556v-1.5zm2.601 2.602a2.602 2.602 0 00-2.602-2.602v1.5c.609 0 1.102.494 1.102 1.102h1.5zm-2.602 2.602a2.602 2.602 0 002.602-2.602h-1.5c0 .609-.493 1.102-1.102 1.102v1.5zm-5.555 0h5.556v-1.5h-5.556v1.5zm-2.602-2.602a2.602 2.602 0 002.602 2.602v-1.5a1.102 1.102 0 01-1.102-1.102h-1.5zm.3-6.602c-.325-5.132-2.982-9.56-5.481-13.69l-1.283.776c2.53 4.184 4.97 8.302 5.266 13.008l1.497-.094zm15.64-13.69c-2.499 4.131-5.155 8.558-5.479 13.69l1.497.094c.297-4.706 2.735-8.823 5.266-13.007l-1.284-.776zM20.54 43.344c.978 0 1.722-.786 1.78-1.703l-1.497-.094c-.012.186-.156.297-.283.297v1.5zm-9.596-1.5c-.127 0-.271-.11-.283-.297l-1.497.094c.058.917.803 1.703 1.78 1.703v-1.5z"/><path id="path5_fill" d="M0 1.852C0 .829.83 0 1.852 0H20.37v3.704H1.852A1.852 1.852 0 010 1.852z"/><path id="path6_stroke" d="M20.37 0h.75a.75.75 0 00-.75-.75V0zm0 3.704v.75a.75.75 0 00.75-.75h-.75zM1.852-.75A2.602 2.602 0 00-.75 1.852h1.5C.75 1.243 1.243.75 1.852.75v-1.5zm18.518 0H1.853h-.001v1.5H20.37v-1.5zM1.852 4.454H20.37v-1.5H1.852v1.5zM-.75 1.852a2.602 2.602 0 002.602 2.602v-1.5A1.102 1.102 0 01.75 1.852h-1.5zm21.87 1.852V0h-1.5v3.704h1.5z"/></defs></svg>
